src/categories-icons-sprite/categories/svg-cat-accessories-man-bags.svg

<svg width="33" height="28" viewBox="0 0 33 28" fill="none" xmlns="http://www.w3.org/2000/svg">
<path class="p-B29A7E" d="M31.282 16.771H0.802734V28.0002H31.282V16.771Z" fill="#58ADE5"/>
<path class="p-A58868" d="M31.2806 16.771H16.041V28.0002H31.2806V16.771Z" fill="#4D98CB"/>
<path class="p-947859" d="M22.0567 6.01564H20.5254C20.5254 4.02541 18.5203 1.53126 16.041 1.53126C13.5618 1.53126 11.5566 4.02541 11.5566 6.01564H10.0254C10.0254 2.69864 12.724 0 16.041 0C19.358 0 22.0567 2.69864 22.0567 6.01564Z" fill="#58ADE5"/>
<path class="p-BFA993" d="M0 14.3648C0 17.0226 2.15467 19.1773 4.81252 19.1773H27.2709C29.9288 19.1773 32.0834 17.0226 32.0834 14.3648V4.73975H0V14.3648Z" fill="#5FBEFF"/>
<path class="p-B29A7E" d="M16.041 4.73975V19.1773H27.2703C29.9281 19.1773 32.0828 17.0226 32.0828 14.3648V4.73975H16.041Z" fill="#65B3E7"/>
<path class="p-88888F" d="M8.0215 16.8438H5.61523V23.2604H8.0215V16.8438Z" fill="#AFD9F6"/>
<path class="p-88888F" d="M26.4688 16.8438H24.0625V23.2604H26.4688V16.8438Z" fill="#AFD9F6"/>
<path class="p-EBE4DD" d="M20.9271 9.55225H11.1562V13.4898H20.9271V9.55225Z" fill="#B9DFFC"/>
<path class="p-D8CCBC" d="M20.9264 9.55225H16.041V13.4898H20.9264V9.55225Z" fill="#A1D1FD"/>
</svg>

<svg width="33" height="28" fill="none" xmlns="http://www.w3.org/2000/svg"><path class="p-B29A7E" d="M31.282 16.771H.802v11.23h30.48V16.77z" fill="#58ADE5"/><path class="p-A58868" d="M31.28 16.771H16.042v11.23h15.24V16.77z" fill="#4D98CB"/><path class="p-947859" d="M22.057 6.016h-1.532c0-1.99-2.005-4.485-4.484-4.485-2.48 0-4.484 2.494-4.484 4.485h-1.532A6.022 6.022 0 0116.041 0a6.023 6.023 0 016.016 6.016z" fill="#58ADE5"/><path class="p-BFA993" d="M0 14.365a4.813 4.813 0 004.813 4.812H27.27a4.813 4.813 0 004.812-4.812V4.74H0v9.625z" fill="#5FBEFF"/><path class="p-B29A7E" d="M16.041 4.74v14.437h11.23a4.813 4.813 0 004.812-4.812V4.74H16.04z" fill="#65B3E7"/><path class="p-88888F" d="M8.021 16.844H5.615v6.416h2.406v-6.416zM26.469 16.844h-2.407v6.416h2.407v-6.416z" fill="#AFD9F6"/><path class="p-EBE4DD" d="M20.927 9.552h-9.77v3.938h9.77V9.552z" fill="#B9DFFC"/><path class="p-D8CCBC" d="M20.926 9.552h-4.885v3.938h4.885V9.552z" fill="#A1D1FD"/></svg>
